app/assets/images/whatsapp_black.svg

<svg width="23" height="23" viewBox="0 0 23 23" fill="none" xmlns="http://www.w3.org/2000/svg">
<path d="M19.6341 3.35417C17.4704 1.19792 14.5854 0 11.5401 0C5.20906 0 0.0801381 5.11111 0.0801381 11.4201C0.0801381 13.4167 0.641115 15.4132 1.60279 17.0903L0 23L6.09059 21.4028C7.77352 22.2812 9.61672 22.7604 11.5401 22.7604C17.8711 22.7604 23 17.6493 23 11.3403C22.9199 8.38542 21.7979 5.51042 19.6341 3.35417ZM17.0697 15.4931C16.8293 16.1319 15.7073 16.7708 15.1463 16.8507C14.6655 16.9306 14.0244 16.9306 13.3833 16.7708C12.9826 16.6111 12.4216 16.4514 11.7805 16.1319C8.89547 14.934 7.05227 12.059 6.89199 11.8194C6.73171 11.6597 5.6899 10.3021 5.6899 8.86458C5.6899 7.42708 6.41115 6.78819 6.65157 6.46875C6.89198 6.1493 7.21254 6.1493 7.45296 6.1493C7.61324 6.1493 7.85365 6.1493 8.01393 6.1493C8.17421 6.1493 8.41463 6.06944 8.65505 6.62847C8.89547 7.1875 9.45644 8.625 9.53658 8.70486C9.61672 8.86458 9.61672 9.02431 9.53658 9.18403C9.45644 9.34375 9.3763 9.50347 9.21602 9.66319C9.05575 9.82292 8.89547 10.0625 8.81533 10.1424C8.65505 10.3021 8.49477 10.4618 8.65505 10.7014C8.81533 11.0208 9.37631 11.8993 10.2578 12.6979C11.3798 13.6562 12.2613 13.9757 12.5819 14.1354C12.9024 14.2951 13.0627 14.2153 13.223 14.0556C13.3833 13.8958 13.9443 13.2569 14.1045 12.9375C14.2648 12.6181 14.5052 12.6979 14.7456 12.7778C14.9861 12.8576 16.4286 13.5764 16.669 13.7361C16.9895 13.8958 17.1498 13.9757 17.23 14.0556C17.3101 14.2951 17.3101 14.8542 17.0697 15.4931Z" fill="black"/>
</svg>

<svg width="23" height="23" fill="none" xmlns="http://www.w3.org/2000/svg"><path d="M19.634 3.354A11.421 11.421 0 0011.54 0C5.21 0 .08 5.111.08 11.42c0 1.997.561 3.993 1.523 5.67L0 23l6.09-1.597a11.718 11.718 0 005.45 1.357c6.331 0 11.46-5.11 11.46-11.42-.08-2.955-1.202-5.83-3.366-7.986zm-2.564 12.14c-.24.638-1.363 1.277-1.924 1.357-.48.08-1.122.08-1.763-.08-.4-.16-.961-.32-1.602-.64-2.886-1.197-4.729-4.072-4.889-4.312-.16-.16-1.202-1.517-1.202-2.954 0-1.438.721-2.077.962-2.396.24-.32.56-.32.801-.32h.56c.161 0 .402-.08.642.48.24.559.801 1.996.882 2.076.08.16.08.32 0 .479-.08.16-.16.32-.321.48-.16.159-.32.399-.4.478-.161.16-.321.32-.161.56.16.319.721 1.197 1.603 1.996 1.122.958 2.003 1.278 2.324 1.437.32.16.48.08.641-.08.16-.16.721-.798.881-1.117.16-.32.401-.24.642-.16.24.08 1.683.798 1.923.958.32.16.48.24.561.32.08.24.08.798-.16 1.437z" fill="#000"/></svg>
